X:14962
T:Schottisch
S:Notenmaterial von Stefan Straubinger
N:Tonarten der Quelle: A + B Teil in C-Dur, Trio in F
Z:abc transcription Simon Wascher
N:please mail errors to: simon.wascher@chello.at
M:2/4
L:1/16
C:trad.
K:G
dd|d2B2 d2B2|b3a g4|a2d2 a2d2|c'3ba4|
g2Bd d2g2|b3ag4|a2d2 b3a|g2g2g2:|
|:d2|(b4a2)d2|(a4g2)d2|(g4f2)c2|(e4d2)c2|
d3c c2A2|e2d2 g3b|d'3c' c'2f2|g2g2g2:|
P:Trio
K:C
|:cd|e4f2e2|d2b2a4|f4g3f|e2c'2 g3f|
e2e2 f3e|d2b4a2-|a2g4B2|c2e2c2:|]


